src/food-drink/food-fruit/1F965.svg

<svg id="emoji" viewBox="0 0 72 72" xmlns="http://www.w3.org/2000/svg">
  <g id="grid">
    <path fill="#b3b3b3" d="M68,4V68H4V4H68m4-4H0V72H72V0Z"/>
    <path fill="none" stroke="#00a5ff" stroke-miterlimit="10" stroke-width="0.1" d="M12.923,10.9583H59.0769A1.9231,1.9231,0,0,1,61,12.8814V59.0352a1.9231,1.9231,0,0,1-1.9231,1.9231H12.9231A1.9231,1.9231,0,0,1,11,59.0352V12.8813A1.923,1.923,0,0,1,12.923,10.9583Z"/>
    <rect x="16" y="4" rx="2.2537" width="40" height="64" fill="none" stroke="#00a5ff" stroke-miterlimit="10" stroke-width="0.1"/>
    <rect x="16" y="4" rx="2.2537" width="40" height="64" transform="translate(72) rotate(90)" fill="none" stroke="#00a5ff" stroke-miterlimit="10" stroke-width="0.1"/>
    <circle cx="36" cy="36" r="29" fill="none" stroke="#00a5ff" stroke-miterlimit="10" stroke-width="0.1"/>
  </g>
  <g id="color">
    <path fill="#A57939" stroke="#A57939" stroke-linecap="round" stroke-linejoin="round" stroke-miterlimit="10" stroke-width="2" d="M52.7379,53.1335c-1.8989,1.899-4.0249,3.4471-6.2955,4.6442c-0.7534,0.3922-1.5274,0.7534-2.3118,1.0734 C41.0035,60.1101,37.67,60.75,34.3468,60.75c-6.6567,0-13.3134-2.5388-18.3911-7.6165 c-10.1553-10.1553-4.4894-20.9609,5.666-31.1162C31.777,11.8516,42.5826,6.196,52.7379,16.3513 c1.1972,1.1972,2.2499,2.4769,3.1684,3.8289C62.7591,30.2943,61.7064,44.1753,52.7379,53.1335z"/>
    <path fill="#D0CFCE" stroke="#D0CFCE" stroke-linecap="round" stroke-linejoin="round" stroke-miterlimit="10" stroke-width="2" d="M21.56,45.5c-2.7683,0.2917-4.5408,1.4543-6.0183,0.4583C8,40.875,31.625,12.2917,42.75,14.4583 C38.0321,15.9531,17.8324,28.3262,21.56,45.5z"/>
    <path fill="#FFFFFF" stroke="#FFFFFF" stroke-linecap="round" stroke-linejoin="round" stroke-miterlimit="10" stroke-width="2" d="M35.99,36.01c-4.03,4.03-8.34,7.03-12.04,8.63c-0.83,0.36-1.63,0.65-2.39,0.86C13.8003,29.5559,41.1619,12.7341,44.8,15.51 C48.4259,18.2767,44.08,27.92,35.99,36.01z"/>
    <path fill="#FFFFFF" stroke="none" stroke-linecap="round" stroke-linejoin="round" stroke-miterlimit="10" stroke-width="2" d="M45.6667,15.875c-1.771-1.771-5.1098-2.033-9.0417-0.4167"/>
    <path fill="#FFFFFF" stroke="none" stroke-linecap="round" stroke-linejoin="round" stroke-miterlimit="10" stroke-width="2" d="M14.3712,40.6667c-0.6125,2.4641-0.3948,4.4784,0.8066,5.6797"/>
    <path fill="#6A462F" stroke="none" d="M52.7379,53.1335C47.6602,58.2112,41.0035,60.75,34.3468,60.75 c-2.6447-0.0032,31.9394-14.8568,13.0069-48.3282C64.9749,22.9772,61.7064,44.1753,52.7379,53.1335z"/>
  </g>
  <g id="hair"/>
  <g id="skin"/>
  <g id="skin-shadow"/>
  <g id="line">
    <path fill="none" stroke="#000000" stroke-linecap="round" stroke-linejoin="round" stroke-miterlimit="10" stroke-width="2" d="M45.6667,15.875c-1.771-1.771-5.1098-2.033-9.0417-0.4167"/>
    <path fill="none" stroke="#000000" stroke-linecap="round" stroke-linejoin="round" stroke-miterlimit="10" stroke-width="2" d="M14.3712,40.6667c-0.6125,2.4641-0.3948,4.4784,0.8066,5.6797"/>
    <path fill="none" stroke="#000000" stroke-linecap="round" stroke-linejoin="round" stroke-miterlimit="10" stroke-width="2" d="M45.6662,15.8579c1.1431,1.1431,1.4082,2.0153,0.8338,4.3921c-0.4408,1.824,0.875,7.5-2.7014,7.1824 c-1.7704-0.1572-2.4126,5.7146-3.6736,7.3176c-1.261,1.603-2.0464-0.3286-3.625,1.25c-1.2405,1.2405-3.6268,2.9832-5.25,4.125 c-0.5293,0.3723,0.0439,0.7503-0.125,1.375c-0.3324,1.2299-5.9607,3.9444-7.7968,4.7164C22.0241,46.7646,20.2273,45.8219,19.125,46 c-1.953,0.3156-2.9552,1.3383-3.9472,0.3464"/>
    <path fill="none" stroke="#000000" stroke-linecap="round" stroke-linejoin="round" stroke-miterlimit="10" stroke-width="2" d="M52.7379,53.1335c-1.8989,1.899-4.0249,3.4471-6.2955,4.6442c-0.7534,0.3922-1.5274,0.7534-2.3118,1.0734 C41.0035,60.1101,37.67,60.75,34.3468,60.75c-6.6567,0-13.3134-2.5388-18.3911-7.6165 c-10.1553-10.1553-4.4894-20.9609,5.666-31.1162C31.777,11.8516,42.5826,6.196,52.7379,16.3513 c1.1972,1.1972,2.2186,2.6717,3.1371,4.0237C62.7278,30.4891,61.7064,44.1753,52.7379,53.1335z"/>
  </g>
</svg>

<svg viewBox="0 0 72 72" xmlns="http://www.w3.org/2000/svg"><path fill="#b3b3b3" d="M68 4v64H4V4h64m4-4H0v72h72V0z"/><path fill="none" stroke="#00a5ff" stroke-miterlimit="10" stroke-width=".1" d="M12.923 10.958h46.154A1.923 1.923 0 0161 12.881v46.154a1.923 1.923 0 01-1.923 1.923H12.923A1.923 1.923 0 0111 59.035V12.881a1.923 1.923 0 011.923-1.923z"/><rect x="16" y="4" rx="2.254" width="40" height="64" fill="none" stroke="#00a5ff" stroke-miterlimit="10" stroke-width=".1"/><rect x="16" y="4" rx="2.254" width="40" height="64" transform="rotate(90 36 36)" fill="none" stroke="#00a5ff" stroke-miterlimit="10" stroke-width=".1"/><circle cx="36" cy="36" r="29" fill="none" stroke="#00a5ff" stroke-miterlimit="10" stroke-width=".1"/><g stroke-linecap="round" stroke-miterlimit="10" stroke-width="6" stroke="#fff" fill="none" stroke-linejoin="round"><path d="M45.667 15.875c-1.771-1.771-5.11-2.033-9.042-.417M14.371 40.667c-.612 2.464-.395 4.478.807 5.68"/><path d="M45.666 15.858c1.143 1.143 1.408 2.015.834 4.392-.44 1.824.875 7.5-2.701 7.182-1.77-.157-2.413 5.715-3.674 7.318-1.261 1.603-2.046-.329-3.625 1.25-1.24 1.24-3.627 2.983-5.25 4.125-.53.372.044.75-.125 1.375-.332 1.23-5.96 3.944-7.797 4.716-1.304.549-3.1-.394-4.203-.216-1.953.316-2.955 1.338-3.947.346"/><path d="M52.738 53.133a26.116 26.116 0 01-6.296 4.645c-.753.392-1.527.753-2.311 1.073a26.241 26.241 0 01-9.784 1.899 25.928 25.928 0 01-18.391-7.617c-10.156-10.155-4.49-20.96 5.666-31.116 10.155-10.165 20.96-15.821 31.116-5.666 1.197 1.197 2.219 2.672 3.137 4.024 6.853 10.114 5.831 23.8-3.137 32.758z"/></g><path fill="#A57939" stroke="#A57939" stroke-linecap="round" stroke-linejoin="round" stroke-miterlimit="10" stroke-width="2" d="M52.738 53.133a26.116 26.116 0 01-6.296 4.645c-.753.392-1.527.753-2.311 1.073a26.241 26.241 0 01-9.784 1.899 25.928 25.928 0 01-18.391-7.617c-10.156-10.155-4.49-20.96 5.666-31.116 10.155-10.165 20.96-15.821 31.116-5.666a26.326 26.326 0 013.168 3.83c6.853 10.113 5.8 23.994-3.168 32.953z"/><path fill="#D0CFCE" stroke="#D0CFCE" stroke-linecap="round" stroke-linejoin="round" stroke-miterlimit="10" stroke-width="2" d="M21.56 45.5c-2.768.292-4.54 1.454-6.018.458C8 40.875 31.625 12.292 42.75 14.458 38.032 15.953 17.832 28.326 21.56 45.5z"/><path fill="#FFF" stroke="#FFF" stroke-linecap="round" stroke-linejoin="round" stroke-miterlimit="10" stroke-width="2" d="M35.99 36.01c-4.03 4.03-8.34 7.03-12.04 8.63-.83.36-1.63.65-2.39.86C13.8 29.556 41.162 12.734 44.8 15.51c3.626 2.767-.72 12.41-8.81 20.5z"/><path fill="#FFF" d="M45.667 15.875c-1.771-1.771-5.11-2.033-9.042-.417M14.371 40.667c-.612 2.464-.395 4.478.807 5.68"/><path fill="#6A462F" d="M52.738 53.133a25.928 25.928 0 01-18.391 7.617c-2.645-.003 31.94-14.857 13.007-48.328 17.62 10.555 14.352 31.753 5.384 40.712z"/><g fill="none" stroke="#000" stroke-linecap="round" stroke-linejoin="round" stroke-miterlimit="10" stroke-width="2"><path d="M45.667 15.875c-1.771-1.771-5.11-2.033-9.042-.417M14.371 40.667c-.612 2.464-.395 4.478.807 5.68"/><path d="M45.666 15.858c1.143 1.143 1.408 2.015.834 4.392-.44 1.824.875 7.5-2.701 7.182-1.77-.157-2.413 5.715-3.674 7.318-1.261 1.603-2.046-.329-3.625 1.25-1.24 1.24-3.627 2.983-5.25 4.125-.53.372.044.75-.125 1.375-.332 1.23-5.96 3.944-7.797 4.716-1.304.549-3.1-.394-4.203-.216-1.953.316-2.955 1.338-3.947.346"/><path d="M52.738 53.133a26.116 26.116 0 01-6.296 4.645c-.753.392-1.527.753-2.311 1.073a26.241 26.241 0 01-9.784 1.899 25.928 25.928 0 01-18.391-7.617c-10.156-10.155-4.49-20.96 5.666-31.116 10.155-10.165 20.96-15.821 31.116-5.666 1.197 1.197 2.219 2.672 3.137 4.024 6.853 10.114 5.831 23.8-3.137 32.758z"/></g></svg>
